symbols/de/bostrab/v2.svg

<?xml version="1.0" encoding="UTF-8" standalone="no"?>
<svg
   width="10"
   height="14"
   viewBox="0 0 9.9999999 14"
   version="1.1"
   id="svg3"
   sodipodi:docname="v2.svg"
   inkscape:version="1.4 (e7c3feb100, 2024-10-09)"
   xmlns:inkscape="http://www.inkscape.org/namespaces/inkscape"
   xmlns:sodipodi="http://sodipodi.sourceforge.net/DTD/sodipodi-0.dtd"
   xmlns="http://www.w3.org/2000/svg"
   xmlns:svg="http://www.w3.org/2000/svg">
  <defs
     id="defs3" />
  <sodipodi:namedview
     id="namedview3"
     pagecolor="#ffffff"
     bordercolor="#999999"
     borderopacity="1"
     inkscape:showpageshadow="0"
     inkscape:pageopacity="0"
     inkscape:pagecheckerboard="0"
     inkscape:deskcolor="#d1d1d1"
     inkscape:zoom="18.141708"
     inkscape:cx="-4.9058224"
     inkscape:cy="4.4372888"
     inkscape:window-width="1920"
     inkscape:window-height="1008"
     inkscape:window-x="1920"
     inkscape:window-y="0"
     inkscape:window-maximized="1"
     inkscape:current-layer="svg3" />
  <path
     fill-rule="nonzero"
     fill="#000000"
     fill-opacity="1"
     d="M 0,0 H 10 V 14 H 0 Z m 0,0"
     id="path1"
     style="stroke-width:1.00813" />
  <path
     fill-rule="nonzero"
     fill="#3ce0b7"
     fill-opacity="1"
     d="m 9.113031,2.992188 c 0,0.988281 -0.804688,1.789062 -1.792969,1.789062 C 6.331781,4.78125 5.531,3.980469 5.531,2.992188 c 0,-0.988282 0.800781,-1.792969 1.789062,-1.792969 0.988281,0 1.792969,0.804687 1.792969,1.792969 z m 0,0"
     id="path2"
     style="fill:#fdca05;fill-opacity:1" />
  <path
     fill-rule="nonzero"
     fill="#fdca05"
     fill-opacity="1"
     d="m 4.46875,11.011969 c 0,0.988281 -0.804688,1.789062 -1.792969,1.789062 -0.988281,0 -1.789062,-0.800781 -1.789062,-1.789062 0,-0.988281 0.800781,-1.792969 1.789062,-1.792969 0.988281,0 1.792969,0.804688 1.792969,1.792969 z m 0,0"
     id="path3"
     style="fill:#3ce0b7;fill-opacity:1" />
</svg>

<?xml version="1.0" encoding="UTF-8"?>
<svg xmlns="http://www.w3.org/2000/svg" xmlns:xlink="http://www.w3.org/1999/xlink" width="10" height="14" viewBox="0 0 10 14">
<rect x="-1" y="-1.4" width="12" height="16.8" fill="rgb(0%, 0%, 0%)" fill-opacity="1"/>
<path fill-rule="nonzero" fill="rgb(99.215686%, 79.215686%, 1.960784%)" fill-opacity="1" d="M 9.113281 2.992188 C 9.113281 3.980469 8.308594 4.78125 7.320312 4.78125 C 6.332031 4.78125 5.53125 3.980469 5.53125 2.992188 C 5.53125 2.003906 6.332031 1.199219 7.320312 1.199219 C 8.308594 1.199219 9.113281 2.003906 9.113281 2.992188 Z M 9.113281 2.992188 "/>
<path fill-rule="nonzero" fill="rgb(23.529412%, 87.843137%, 71.764706%)" fill-opacity="1" d="M 4.46875 11.011719 C 4.46875 12 3.664062 12.800781 2.675781 12.800781 C 1.6875 12.800781 0.886719 12 0.886719 11.011719 C 0.886719 10.023438 1.6875 9.21875 2.675781 9.21875 C 3.664062 9.21875 4.46875 10.023438 4.46875 11.011719 Z M 4.46875 11.011719 "/>
</svg>
